X: 1
T: King Robert the Bruce
R: march
N: Skinner, SV p.32 (variations), Bruce's March, H&C  p.30)  Scotland  the
N: Brave BSFC II-46, Reiner AFS, pipe band on "This is Sidney" tape
Z: 1998 by John Chambers <jc:trillian.mit.edu>
M: C
L: 1/8
K: D
%%staffsep 70
A, \
| "D"{A,}[DD]>E FD "A"EA, "D"D2 | {D}d>c B/A/G/F/ "A"{D}FE EF \
|        [DD]>E FD "G"G>A B>B | "A"A/B/c/d/ e/f/g/e/ "D"[fA][dF] [dF] :|
a/g/ \
| "D"fD aD "G"bG,-G, b/a/ | "E"^gE bE "A"aA,-A, a/g/ \
| "D"fD aD "G"bG,-G, B, | "A"A,/B,/C/D/ E/F/G/A/ "D"FDD a |
| "D"d'd Dd' "G"bG,-G, b | "E"e'b E^g "A"aA,- A,>C \
| "D"{A,}[DD]>E FD "A"EA, "D"D2 | "A"A,/B,/C/D/ E/F/G/A/ "D"FDD |]
